X: 2454
T: Ballroom Favourite, The
R: barndance
M: 4/4
K: Dmajor
|:F>G|A2 F2 A4|B2 G2 B4|c>Bc>d e>dc>d|(3efe d>B A>GF>G|
A2 F2 A4|B2 G2 B4|c>Bc>d e>dc>d|(3efe d>c d2-:|
|:d>f|a2 b>a f2 d2|c>de>f g4|g>fg>e c2 A>c|d>ef>g a3 f|
a2 b>a f2 d2|c>de>f g4|g>fg>e cA (3Bcd|(3efe d>c d2-:|

